FINK
CUT[DIR FOLGEN MEINE THRAENEN]
REG[Europa, Mitteleuropa, Deutschland]
KEY[F0906  16  F 2/4]
MEL[5_  43b21-7_1_  6b_5_
    4#__  5_2_2_3b2  2__0_
    2_  3b_3_4_4#_  56b4__0
    5  43b216b_5-7  1__0_ //] >>
FCT[Liebes - Lied, Klage]
